X:1
T:Title
%%score { 1 | 2 }
L:1/8
Q:1/4=100
M:4/4
K:C
V:1 treble nm="Grand Piano"
V:2 bass 
V:1
 [ce]2 [ce]2 [ce]2 [Bd]2 | [df]2 [df]2 [df]2 [ce]2 | [eg]2 [eg]2 [eg]2 [df]2 | [ce]2 [Bd]2 [ce]4 | %4
w: J.~E.~Gould * * *||||
 [ce]2 [ce]2 [ce]2 [Bd]2 | [df]2 [df]2 [df]2 [ce]2 | [cg]2 [cg]2 [cg]2 [cf]2 | [ce]2 [Bd]2 c4 | %8
w: ||||
 d3 c c2 B2 | e3 d d2 c2 | [cg]2 [cg]2 [cg]2 [cf]2 | [ce]4 [Bd]4 | c8 |] %13
w: |||||
V:2
 [C,G,]2 [C,G,]2 G,2 G,2 | [G,,G,]2 [G,,G,]2 [C,G,]2 [C,G,]2 | [C,C]2 [C,C]2 [F,A,]2 [F,A,]2 | %3
 G,2 G,2 [C,G,]4 | [C,G,]2 [C,G,]2 G,2 G,2 | [G,,G,]2 [G,,G,]2 [C,G,]2 [C,G,]2 | %6
 [E,_B,]2 [E,B,]2 [F,A,]2 [F,A,]2 | G,2 [G,,F,]2 [C,E,]4 | [G,,F,]3 [G,,E,] [G,,E,]2 [G,,D,]2 | %9
 [C,G,]3 [C,F,] [C,F,]2 [C,E,]2 | [E,_B,]2 [E,B,]2 [F,A,]2 [F,A,]2 | G,4 [G,,F,]4 | [C,E,]8 |] %13

